material/.icons/material/format-header-increase.svg

<svg xmlns="http://www.w3.org/2000/svg" viewBox="0 0 24 24"><path d="M4 4h2v6h4V4h2v14h-2v-6H6v6H4V4m10.59 3.41L18.17 11l-3.58 3.59L16 16l5-5-5-5-1.41 1.41z"/></svg>

<?xml version="1.0" encoding="UTF-8"?><!DOCTYPE svg PUBLIC "-//W3C//DTD SVG 1.1//EN" "http://www.w3.org/Graphics/SVG/1.1/DTD/svg11.dtd"><svg xmlns="http://www.w3.org/2000/svg" xmlns:xlink="http://www.w3.org/1999/xlink" version="1.1" id="mdi-format-header-increase" width="24" height="24" viewBox="0 0 24 24"><path d="M4,4H6V10H10V4H12V18H10V12H6V18H4V4M14.59,7.41L18.17,11L14.59,14.59L16,16L21,11L16,6L14.59,7.41Z" /></svg>
